X:51
T:Millford Haven. Ru2.051
%%VWML:RutherfordVol2-2249-p26-0
F:http://www.vwml.org/record/RutherfordVol2/2249/p26
L:1/8
B:RUTHERFORD Complete Collection of 200 Country Dances Vol.2; 1759.
Z:vmp. Peter Dunk 2015
Q:3/8=100
K:C
CDE E2D|C3 G,3|EFG G2F|E3C3|c2B c2G|A2B c2E|F2E D2C|
D3 G,3|cde e2d|c3G3|efg g2f|e3 c3|c'2b c'2g|a2b c'2f|
e3 d3|c3 c3|C2E G2E|DB,G, G,A,B,|C2E G2E|D3G,3|
C2E G2E|A2F E2D|EFG B,CD|C3 C3|cde g2e|dBG GAB|
c2e g2e|d3G3|cde g2e|a2f e2d|efg Bcd|c3 c3|]
W:
W:Foot it & cast off 2 Cu: .| lead to the top foot it & cast
W:off :| Hands round 4 at bottom .|. right and left at top :\:
T:Lady Caroline Stanhope's Birthday. Ru2.052
M:C
L:1/8
B:RUTHERFORD Complete Collection of 200 Country Dances Vol.2; 1759.
Z:vmp. Peter Dunk 2015
Q:1/4=140
K:E
E2 GEBE c2|Bdec BAGF|E2 GEBE c2|Bc/d/eA GF E2:|
|:B2 dBfB a2|gf/e/ de fedc|B2 dBfB a2|gfed e2E2:|
W:
W:Cast off one Cu: and turn .| Cast off another Cu: and turn :|
W:lead up to the top and cast off .|. Hands round all 6 :|
